resources/haticons/SVG/format_indent_increase.svg

<!-- Generated by IcoMoon.io -->
<svg version="1.1" xmlns="http://www.w3.org/2000/svg" width="24" height="24" viewBox="0 0 24 24">
<title>format_indent_increase</title>
<path d="M11.016 12.984v-1.969h9.984v1.969h-9.984zM11.016 9v-2.016h9.984v2.016h-9.984zM3 3h18v2.016h-18v-2.016zM11.016 17.016v-2.016h9.984v2.016h-9.984zM3 8.016l3.984 3.984-3.984 3.984v-7.969zM3 21v-2.016h18v2.016h-18z"></path>
</svg>

<svg xmlns="http://www.w3.org/2000/svg" width="24" height="24"><path d="M11.016 12.984v-1.969H21v1.969h-9.984zm0-3.984V6.984H21V9h-9.984zM3 3h18v2.016H3V3zm8.016 14.016V15H21v2.016h-9.984zM3 8.016L6.984 12 3 15.984V8.015zM3 21v-2.016h18V21H3z"/></svg>
